brand/unknow.svg

<?xml version="1.0" standalone="no"?><!DOCTYPE svg PUBLIC "-//W3C//DTD SVG 1.1//EN" "http://www.w3.org/Graphics/SVG/1.1/DTD/svg11.dtd"><svg t="1657892550865" class="icon" viewBox="0 0 1024 1024" version="1.1" xmlns="http://www.w3.org/2000/svg" p-id="3759" xmlns:xlink="http://www.w3.org/1999/xlink" width="128" height="128"><defs><style type="text/css">@font-face { font-family: feedback-iconfont; src: url("//at.alicdn.com/t/font_1031158_u69w8yhxdu.woff2?t=1630033759944") format("woff2"), url("//at.alicdn.com/t/font_1031158_u69w8yhxdu.woff?t=1630033759944") format("woff"), url("//at.alicdn.com/t/font_1031158_u69w8yhxdu.ttf?t=1630033759944") format("truetype"); }
</style></defs><path d="M554.666667 640v85.333333h-85.333334v-85.333333h85.333334z m0-42.666667h-85.333334v-64a42.666667 42.666667 0 0 1 42.666667-42.666666 64 64 0 1 0-62.762667-76.544l-83.712-16.768A149.376 149.376 0 1 1 554.666667 569.813333V597.333333zM213.333333 170.666667v682.666666h597.333334V341.333333h-170.666667V170.666667H213.333333zM170.624 85.333333H682.666667l213.333333 213.333334v597.034666A42.666667 42.666667 0 0 1 853.632 938.666667H170.368A42.666667 42.666667 0 0 1 128 896.341333V127.658667C128 104.277333 147.072 85.333333 170.624 85.333333z" p-id="3760" fill="#707070"></path></svg>

<svg xmlns="http://www.w3.org/2000/svg" width="128" height="128" class="icon" viewBox="0 0 1024 1024"><defs><style>@font-face{font-family:feedback-iconfont;src:url(//at.alicdn.com/t/font_1031158_u69w8yhxdu.woff2?t=1630033759944)format(&quot;woff2&quot;),url(//at.alicdn.com/t/font_1031158_u69w8yhxdu.woff?t=1630033759944)format(&quot;woff&quot;),url(//at.alicdn.com/t/font_1031158_u69w8yhxdu.ttf?t=1630033759944)format(&quot;truetype&quot;)}</style></defs><path fill="#707070" d="M554.667 640v85.333h-85.334V640zm0-42.667h-85.334v-64A42.667 42.667 0 0 1 512 490.667a64 64 0 1 0-62.763-76.544l-83.712-16.768a149.376 149.376 0 1 1 189.142 172.458zM213.333 170.667v682.666h597.334v-512H640V170.667zm-42.709-85.334h512.043L896 298.667V895.7a42.667 42.667 0 0 1-42.368 42.966H170.368A42.667 42.667 0 0 1 128 896.34V127.66c0-23.382 19.072-42.326 42.624-42.326"/></svg>
